icons/caret-double-right-1.svg

<svg width="24" height="25" viewBox="0 0 24 25" fill="none" xmlns="http://www.w3.org/2000/svg">
<path fill-rule="evenodd" clip-rule="evenodd" d="M6.06477 7.64715C6.31046 7.67991 6.50463 7.80328 6.64285 7.94149L10.4516 11.7502C10.5603 11.8204 10.6469 11.913 10.7075 12.0116C10.8167 12.1889 10.8375 12.3683 10.8375 12.4843C10.8375 12.7136 10.7547 12.9903 10.5428 13.2022L6.55679 17.1882L6.44793 17.2426C6.17121 17.381 5.82046 17.4143 5.5021 17.2551C5.16592 17.087 4.96252 16.7479 4.96252 16.3718V8.67182C4.96252 8.35335 5.11234 8.0039 5.42149 7.79779C5.59083 7.68489 5.81523 7.61388 6.06477 7.64715ZM6.46252 9.88249L9.10185 12.5218L6.46252 15.1612V9.88249Z" fill="black"/>
<path fill-rule="evenodd" clip-rule="evenodd" d="M14.2647 7.64715C14.5104 7.67991 14.7046 7.80328 14.8428 7.94149L18.6515 11.7502C18.7602 11.8204 18.8468 11.913 18.9075 12.0116C19.0166 12.1889 19.0375 12.3683 19.0375 12.4843C19.0375 12.7136 18.9547 12.9903 18.7428 13.2022L14.8428 17.1022C14.6397 17.3052 14.3935 17.3545 14.2355 17.3604C14.0691 17.3665 13.9122 17.3305 13.7795 17.2737C13.544 17.1727 13.1625 16.8899 13.1625 16.3718V8.67182C13.1625 8.35335 13.3123 8.0039 13.6214 7.79779C13.7908 7.68489 14.0152 7.61388 14.2647 7.64715ZM14.6625 9.88249V15.1612L17.3018 12.5218L14.6625 9.88249Z" fill="black"/>
</svg>

<svg xmlns="http://www.w3.org/2000/svg" fill="none" viewBox="0 0 24 25">
  <path fill="#000" fill-rule="evenodd" d="M6.065 7.647c.245.033.44.156.578.294l3.809 3.81a.83.83 0 0 1 .255.26.9.9 0 0 1 .13.473c0 .23-.082.506-.294.718l-3.986 3.986-.11.055a1.056 1.056 0 0 1-.945.012.977.977 0 0 1-.54-.883v-7.7c0-.319.15-.668.46-.874a.934.934 0 0 1 .643-.15Zm.398 2.235 2.639 2.64-2.64 2.64v-5.28Zm7.802-2.235c.245.033.44.156.578.294l3.808 3.81c.11.07.196.162.256.26.11.178.13.357.13.473 0 .23-.082.506-.294.718l-3.9 3.9a.902.902 0 0 1-.607.258 1.066 1.066 0 0 1-.457-.086c-.235-.101-.617-.384-.617-.902v-7.7c0-.319.15-.668.46-.874a.934.934 0 0 1 .643-.15Zm.397 2.235v5.28l2.64-2.64-2.64-2.64Z" clip-rule="evenodd"/>
</svg>
